X:1
T:Title
%%score { ( 1 4 ) | ( 2 3 ) }
L:1/8
M:4/4
K:G
V:1 treble nm="Grand Piano"
V:4 treble 
V:2 bass 
V:3 bass 
V:1
 z4 z2[Q:1/4=94] [DB][CA] | [B,G][B,G] [CE]2 [B,D]2 [DG]A | B2 d2 BA G2 | [FA][FA] [FA]2 [FA]4 | %4
[M:9/8] BBB- B d2- ddc |[M:4/4] BB d2 B2 [CFA][B,EG] | [CEA]3 [CEG] [G,CE]2 [G,EG]2 | %7
 [G,D][B,DG][G,DG][EA] B3 c | B2 A2 G4 | dd d2 d3 [DAc] | [DGB]2 [DFA]2 G[FA] [DGB]2 | %11
 [DAc]2 [DGB]2 [A,EA]2 [A,EG]2 |[M:11/8] [Fd]-[Fd]-[Fd]-[Fd]-[Fd]-[Fd]- [Fd]3 dc | %13
[M:4/4] BB d2 B2 [CFA][B,EG] | [CEA]3 [CEG] [G,CE]2 [G,EG]2 | [G,D][B,DG][G,DG][EA] B3 c | %16
 B2 A2 [B,DG]4 |] %17
V:2
 z4 z2 [G,,G,][G,,G,] | [G,,G,][G,,G,] [G,,G,]2 [G,,G,]2 [B,,G,][D,F,D] | z4 .[DG]2 z2 | %3
 [D,D][D,D] [D,D]2 [D,D]4 | %4
[M:9/8][K:treble] [G,DG][G,DG][G,DG]- [G,DG] [G,B,G]2- [G,B,G][G,B,G][G,EG] | %5
[M:4/4] [G,DG][G,DG] [G,B,G]2 [G,DG]2[K:bass] D,E, | C,3 C, C,2 C,2 | %7
 B,,G,,B,,[C,G,] [D,G,D]3 [D,A,D] | [D,G,D]2 [D,CD]2[K:treble] [G,B,D]4 | %9
 [G,B,G][G,B,G] [G,B,G]2 [G,B,G]3[K:bass] F, | G,2 D,2 B,,D, G,2 | F,2 G,2 C,2 ^C,2 | %12
[M:11/8] [D,A,]-[D,A,]-[D,A,]-[D,A,]-[D,A,]-[D,A,]- [D,A,]3[K:treble] [G,B,G][G,EG] | %13
[M:4/4] [G,DG][G,DG] [G,B,G]2 [G,DG]2[K:bass] D,E, | C,3 C, C,2 C,2 | %15
 B,,G,,B,,[C,G,] [D,G,D]3 [D,A,D] | [D,G,D]2 [D,CD]2 [G,,G,]4 |] %17
V:3
 x8 | x8 | [G,D]2 [G,B,D]2 G,-[G,CD] [G,B,D]2 | x8 |[M:9/8][K:treble] x9 |[M:4/4] x6[K:bass] x2 | %6
 x8 | x8 | x4[K:treble] x4 | x7[K:bass] x | x8 | x8 |[M:11/8] x9[K:treble] x2 | %13
[M:4/4] x6[K:bass] x2 | x8 | x8 | x8 |] %17
V:4
 x8 | x8 | x8 | x8 |[M:9/8] x9 |[M:4/4] x8 | x8 | x8 | x8 | x8 | z4 D2 z2 | x8 |[M:11/8] x11 | %13
[M:4/4] x8 | x8 | x8 | x8 |] %17

